X: 33520
T: Raining, The
R: reel
M: 4/4
K: Eminor
|:Bede Bede|fdbf afed|Bede gede|BAGF EFGA|
Bede Bede|fdbf afed|Bede gede|1 BAGF E3A:|2 BAGF E2ef||
|:gbge fad'a|gfed Bdef|e~B3 efge|fad'a fad2|
gbge fad'a|gfed Bdef|e~B3 efge|fafd e4:|

